source/img/user.svg

<svg width="24" height="24" viewBox="0 0 24 24" fill="none" xmlns="http://www.w3.org/2000/svg">
<g opacity="0.5">
<path d="M19.1451 17.3064C19.7104 17.6284 20.1787 18.0861 20.5039 18.6344C20.8291 19.1827 21.0001 19.8027 21 20.4336V22H3V20.4327C2.99999 19.8021 3.17089 19.1823 3.49594 18.6342C3.82098 18.086 4.28898 17.6285 4.854 17.3064L8.45495 15.2555C8.73744 15.0943 8.97139 14.8654 9.13383 14.5913C9.29627 14.3171 9.38161 14.0072 9.38147 13.6918V13.5464C10.182 14.0055 11.0697 14.2736 12 14.2736C12.9303 14.2736 13.8171 14.0055 14.6176 13.5464V13.6918C14.6174 14.0072 14.7028 14.3171 14.8652 14.5913C15.0277 14.8654 15.2616 15.0943 15.5441 15.2555L19.1451 17.3064ZM16.7368 6.98818C16.7368 10 14.6166 12.91 12 12.91C9.38337 12.91 7.26316 10 7.26316 6.98909C7.26316 3.97545 9.38337 2 12 2C14.6166 2 16.7368 3.97727 16.7368 6.98818Z" fill="white"/>
</g>
</svg>

<svg width="24" height="24" fill="none" xmlns="http://www.w3.org/2000/svg"><path d="M19.145 17.306c.565.322 1.034.78 1.359 1.328a3.53 3.53 0 01.496 1.8V22H3v-1.567c0-.63.17-1.25.496-1.799a3.712 3.712 0 011.358-1.328l3.601-2.05c.282-.162.516-.39.679-.665.162-.274.248-.584.247-.9v-.145c.801.46 1.689.728 2.619.728.93 0 1.817-.268 2.618-.728v.146c0 .315.085.625.247.9.163.273.397.502.68.663l3.6 2.051zM16.737 6.988c0 3.012-2.12 5.922-4.737 5.922S7.263 10 7.263 6.99C7.263 3.974 9.383 2 12 2s4.737 1.977 4.737 4.988z" fill="#fff" opacity=".5"/></svg>
